public/avatar/hat/215.svg

<svg xmlns:xlink="http://www.w3.org/1999/xlink" height="92.9" width="100.7" xmlns="http://www.w3.org/2000/svg"><use height="27.3" transform="translate(20.7 49.05)" width="45.9" xlink:href="#a"/><defs><g id="a" fill-rule="evenodd"><path d="m25.85 20.2-8.6-.65q7.65 2.65 7.5 3.05l-1.6 2.95Q15.2 22.5 11.8 20.7q-1.9-.95-2.6-2.25-.35-.65-1-3.3-.25-1.15.45-1.85 1.1-1.05 2.05-1.5l-.35-.2h.7l-.35.2 1.55 1.25q1.2 1.15 3.05 2.1 3.2 1.7 4.85 1.7l7.8.05q-1.15 1.2-2.1 3.3" transform="translate(17.95 .7)"/><path d="m3.45-.7 1.35.15Q6.85-.3 8.55.65L10.2 1.9l.7 1.8h.85q0 .8 1.3 3.1l.3.65-.2.7.4 1.1.05 1.9 1.45-.2q1.45 3.15 1.45 3.85 0 1.05.5 2.85l-1.4 1.65-1.9.95q-2.15 1.25-4.7 1.8l-5.8.5-5.85-.15-.5.05q-3.6.05-8.05-1.9l-3.75-2.05q-3.05-2.45-2.9-2.85l-.1.05 1-1.7.65-1.35v-.05l-.1.05q.35-.25.1-.45l.05-.55 1.7-.15 1.1-1.95-1.15-.7.7-2 1-1.35q-.45-.65 1-2.6.4.4 1.05.4.25 0 1.55-2.05 1.05-1.1 3.6-1.7L3.45-.7" transform="translate(17.95 .7)"/><path d="m5.4 17.9 5.15-.8 2.3-.75 1.65-.9q.6-.25.95.9 1.6 3.85 1.55 4.7l-1.7 1.1-2.15 1.05-3.1 1.4q-3.85 1.55-7.1 2l-7.2-.55-6.85-1.65-3.65-1.3q-1.75-.75-2.7-1.45-.5-.4-.5-1.05l.1-1.7.5-2.45q.3-.6 1.1-.2 2.15 1.1 7.3 1.3l9 .2 5.35.15" transform="translate(17.95 .7)"/><path d="m14.35 18.4 1.6-1.05.4 3.45q-8.6 5.05-15.8 5.05-7.2 0-16.75-4.55l-1-.6.75-3.5q4.8 3.3 10.1 4.25Q2.85 23 8 21.55q1.55-.5 6.35-3.15" fill="#f0ec97" transform="translate(17.95 .7)"/><path d="M10.45 19.35Q6.7 21.3 2.65 21.3q-4 0-10.8-1.5l-4.5-1.5-4.05-2.25 1.55-3.9q2.1 1.25 5.9 2.55 3.75 1.35 13.8 2.1l10.65.2-1.2.8-3.55 1.55" fill="#f0ec97" transform="translate(17.95 .7)"/><path d="m.5 15.6 8.4-1.8q3.05-.8 5.45-1.9l.85 4.2-.65.2L.5 15.6" fill="#f0ec97" transform="translate(17.95 .7)"/><path d="M8.5 11.4q1.55.8 1.2 1.45l-.6.1-.75.35-5.4 1.3-2.1.6v-.1l-.2-.05q-.1-.4.55-.6l.2-.05 1.15-.85L4 12.8l2-1.1q1.35-1 2.5-.3" fill="#6b0000" transform="translate(17.95 .7)"/><path d="m3.35 12.95 1.8-.8 1.3.2q1 .35 1 .7L4.6 14.6l-2.95-.1q-.75-.5 1.7-1.55" fill="#c70000" transform="translate(17.95 .7)"/><path d="m-9.95 11.6 1.6-.3 1.7.85 2.2.85q1.4.35 1.7.7l-.4.45-.6.65q-.5.4-1.55 0l-2.25-.7-1.8-.4q-.9-.5-1.35-.7l-.8-.6q-.15-.45 1.55-.8" fill="#6b0000" transform="translate(17.95 .7)"/><path d="M-7.05 12.3q1.8-.75 3.25 1.3 1.4 1.85-2.8 1-3.8-.8-2.8-1.5.55-.35 2.35-.8" fill="#c70000" transform="translate(17.95 .7)"/><path d="m11.9 7.05.5.7-13.75 7.65h-.85l-1-.2 2.85-2.9q3.2-3 4.9-3.65 4-1.45 5.8-3.95h.6l.95 2.35m-12.1 3.5-.7.55-.8.8-1.1.65-6.15-2.35-4.6-2.05 1.05-1.75q.8-.1.8-1.4l.35-.95L-6.25 7Q-3.7 8.25.45 9.75l-.65.8M.1 8.9l-3.7-1.7q8.55-3.15 9.25-4.75Q6.3.9 5.9 0q3.2.8 3.5 2.15.4 2.1-1.15 3.35L3 8.15.1 8.9" fill="#f0ec97" transform="translate(17.95 .7)"/><path d="m-3.25 6.6-3.45-.9q-2.85-1.45-2.4-2.9.5-1.45 2.35-2.05l-.25.7q-.2.8.15 1.15.6.6 6.8 2.65l-3.2 1.35" fill="#f0ec97" transform="translate(17.95 .7)"/><path d="m1.75.4 2.6.35L4.2 2.4 1.45 3.9l-2.15.25q-4.7-1.5-4.95-2.4Q-5.8 1.1-4.55.6L-2.7.2l4.45.2" fill="#f0ec97" transform="translate(17.95 .7)"/><path d="M13.05 11.95 8.4 10.7l3.35-1.85 1.05 1.35.25 1.75" fill="#665b41" transform="translate(17.95 .7)"/><path d="m-12.45 9.4 2.8 1.25q-2 .85-2.8.9l-1.5.45 1.5-2.6" fill="#9c8c62" transform="translate(17.95 .7)"/><path d="M-5.25 12.5q1.25.25 1 1.3-.3 1-1.55.75t-.95-1.25q.3-1 1.5-.8m9.9.1q1.25.2.95 1.25-.3 1.05-1.5.8-1.25-.25-.95-1.25.3-1 1.5-.8" fill="red" transform="translate(17.95 .7)"/><path d="M3.65 12.45q.85-.1 1 .55.2.7-.55.95-.7.2-.95-.6-.2-.8.5-.9m-9.9-.15q.9-.25 1.15.25.2.45-.55 1.05-.75.6-1.2-.2-.45-.8.6-1.1" fill="#ffb0b0" transform="translate(17.95 .7)"/><path d="M26.25 17.55 25 19.35h-2.1l-5.75-.6-.1-1.6 2.75.4h6.45m-2.75 5.3-.55 1.8-6.6-2.4 1.25-.65.15-1 5.75 2.25" fill="#f0ec97" transform="translate(17.95 .7)"/><path d="M12 19.6Q8.05 23.65-.35 23.65q-8.45 0-12.65-4.6v-.3q7.85 2.1 13.15 2.1 5.3 0 11.85-1.25" transform="translate(17.95 .7)"/><path d="M1.85 3.1q2-.5 1.35-2.55l1.15.2-.1 1.15q0 .5-1.15 1.5-.7.55-2.35.7l-1.45.05-1.05-.45 3.6-.6M.3 8.95l-1.95-.85Q3.4 7.35 5.8 5.75 9.05 3.6 9.25 2.7l.15-.55q.75 1.85-1.45 3.7T.3 8.95M-2.5 4.5l2.45.75-3.2 1.35-1.2-.05-2.65-1 4.1.4q.8-.35 1-.35l-.5-1.1m8.6 6.9-7.4 4.05-.75-.05q3.3-1.8 5.05-3.3l2.95-1.9Q7.65 9.4 8 8.15q.3-1.1.85-1.6L10 5.5q.75-.75 1.15-.15l.7 1.6.55.8-6.3 3.65M.45 9.75l-.2.6-1.3 1.2q-.65.55-1.75 1l-5.8-2.2 4.9.6q1.7.3 1.75-.45.1-.75-3.3-3.05l5.7 2.3m2.8 6 5.1-.7q1.65-.35 3.2-1.3.95-.45 1.85-.95l.95-.1 1.1 3.45-.6.25L7.1 16l-3.85-.25M5 20.5l-4.85-.15-.25-.4.75-.75 5.7-.5-6.9-.7 1.6-.45 1.65-.6 3.65.4L15 16.9l.05.25-1.2.8q-.7 0-3.6 1.65-1.55.65-5.25.9m10.25.9-2.65 1.1Q7.45 24.8 4 25.4l-5.1.2 1.6-.8 4.4-.65 5.85-2.4 3.5-2.55 1.7-1.25.25 2.9-.95.55m1.9-2.65-.2-2 1.6.75 2.3.65 1.7 1.2-5.4-.6m3.85 5.2-2.05-.6-2.6-1.1 1.25-.65.15-1 1.8.7.65.75.8 1.9" fill="#c2ae7a" transform="translate(17.95 .7)"/><path d="m-5.1 8.1-5.2-2.55-1.4-.9.35-.6L-5.1 8.1M-7.05.7l.2 1.3.7 1.15 1.3.65-2.95-.75-.45-.85v-.6l1.2-.9M-2.7.2l2 .25Q-3.25.9-3.6 1.5L-3.85 3l-1.6-1.35.45-.6L-2.7.2M3.7 5Q.45 6.75-2.45 7.65L-3.6 7.2l.45-.25Q3 4.9 4.3 3.85q.8-.6 1.4-1.85L6.05.7Q6.95 3.25 3.7 5" fill="#fff" transform="translate(17.95 .7)"/><path d="m-10.6 5.35-.2 1.05-1.65.95-.45 1.15-.65-.15q.3-1.5.9-1.95.6-.45.95-.9l.05-1.05.4-.15.65 1.05" fill="#fff" transform="translate(17.95 .7)"/><path d="m-12.7 7.25 1.05-.3.95.4 2.8 2.15-4.8-2.25m-4 8.8 1.1-3.05.55-.65 5.6 2.3-4.75-.9-1.15.45-.3.9 5.25 2.4-4.8-1.45.2.8-1.7-.8m3.25 2.8.8.35 1.5 1.2Q-9.4 21.7-8 22.15q2.6.95 5.6 1.55-5.6-.3-10.15-3l-2.6-1.65-1.5-.45-.2-.85.25-.6 3.15 1.7" fill="#fff" transform="translate(17.95 .7)"/><path d="m-2.9 18.9-6-.2q-1.05 0-5.35-2.25L-2.9 18.9" fill="#c2ae7a" transform="translate(17.95 .7)"/></g></defs></svg>

<?xml version="1.0" encoding="UTF-8" standalone="no"?>
<svg xmlns:xlink="http://www.w3.org/1999/xlink" height="92.9px" width="100.7px" xmlns="http://www.w3.org/2000/svg">
  <g transform="matrix(1.0, 0.0, 0.0, 1.0, 38.65, 49.75)">
    <use height="27.3" transform="matrix(1.0, 0.0, 0.0, 1.0, -17.95, -0.7)" width="45.9" xlink:href="#shape0"/>
  </g>
  <defs>
    <g id="shape0" transform="matrix(1.0, 0.0, 0.0, 1.0, 17.95, 0.7)">
      <path d="M25.85 20.2 L17.25 19.55 Q24.9 22.2 24.75 22.6 L23.15 25.55 Q15.2 22.5 11.8 20.7 9.9 19.75 9.2 18.45 8.85 17.8 8.2 15.15 7.95 14.0 8.65 13.3 9.75 12.25 10.7 11.8 L10.35 11.6 11.05 11.6 10.7 11.8 12.25 13.05 Q13.45 14.2 15.3 15.15 18.5 16.85 20.15 16.85 L27.95 16.9 Q26.8 18.1 25.85 20.2" fill="#000000" fill-rule="evenodd" stroke="none"/>
      <path d="M3.45 -0.7 L4.8 -0.55 Q6.85 -0.3 8.55 0.65 L10.2 1.9 10.9 3.7 11.75 3.7 Q11.75 4.5 13.05 6.8 L13.35 7.45 13.15 8.15 13.55 9.25 13.6 11.15 15.05 10.95 Q16.5 14.1 16.5 14.8 16.5 15.85 17.0 17.65 L15.6 19.3 13.7 20.25 Q11.55 21.5 9.0 22.05 L3.2 22.55 -2.65 22.4 -3.15 22.45 Q-6.75 22.5 -11.2 20.55 L-14.95 18.5 Q-18.0 16.05 -17.85 15.65 L-17.95 15.7 -16.95 14.0 -16.3 12.65 -16.3 12.6 -16.4 12.65 Q-16.05 12.4 -16.3 12.2 L-16.25 11.65 -14.55 11.5 -13.45 9.55 -14.6 8.85 -13.9 6.85 -12.9 5.5 Q-13.35 4.85 -11.9 2.9 -11.5 3.3 -10.85 3.3 -10.6 3.3 -9.3 1.25 -8.25 0.15 -5.7 -0.45 L3.45 -0.7" fill="#000000" fill-rule="evenodd" stroke="none"/>
      <path d="M5.4 17.9 L10.55 17.1 12.85 16.35 14.5 15.45 Q15.1 15.2 15.45 16.35 17.05 20.2 17.0 21.05 L15.3 22.15 13.15 23.2 10.05 24.6 Q6.2 26.15 2.95 26.6 L-4.25 26.05 -11.1 24.4 -14.75 23.1 Q-16.5 22.35 -17.45 21.65 -17.95 21.25 -17.95 20.6 L-17.85 18.9 -17.35 16.45 Q-17.05 15.85 -16.25 16.25 -14.1 17.35 -8.95 17.55 L0.05 17.75 5.4 17.9" fill="#000000" fill-rule="evenodd" stroke="none"/>
      <path d="M14.35 18.4 L15.95 17.35 16.35 20.8 Q7.75 25.85 0.55 25.85 -6.65 25.85 -16.2 21.3 L-17.2 20.7 -16.45 17.2 Q-11.65 20.5 -6.35 21.45 2.85 23.0 8.0 21.55 9.55 21.05 14.35 18.4" fill="#f0ec97" fill-rule="evenodd" stroke="none"/>
      <path d="M10.45 19.35 Q6.7 21.3 2.65 21.3 -1.35 21.3 -8.15 19.8 L-12.65 18.3 -16.7 16.05 -15.15 12.15 Q-13.05 13.4 -9.25 14.7 -5.5 16.05 4.55 16.8 L15.2 17.0 14.0 17.8 10.45 19.35" fill="#f0ec97" fill-rule="evenodd" stroke="none"/>
      <path d="M0.5 15.6 L8.9 13.8 Q11.95 13.0 14.35 11.9 L15.2 16.1 14.55 16.3 0.5 15.6" fill="#f0ec97" fill-rule="evenodd" stroke="none"/>
      <path d="M8.5 11.4 Q10.05 12.2 9.7 12.85 L9.1 12.95 8.35 13.3 2.95 14.6 0.85 15.2 0.85 15.1 0.65 15.05 Q0.55 14.65 1.2 14.45 L1.4 14.4 2.55 13.55 4.0 12.8 6.0 11.7 Q7.35 10.7 8.5 11.4" fill="#6b0000" fill-rule="evenodd" stroke="none"/>
      <path d="M3.35 12.95 L5.15 12.15 6.45 12.35 Q7.45 12.7 7.45 13.05 L4.6 14.6 1.65 14.5 Q0.9 14.0 3.35 12.95" fill="#c70000" fill-rule="evenodd" stroke="none"/>
      <path d="M-9.95 11.6 L-8.35 11.3 -6.65 12.15 -4.45 13.0 Q-3.05 13.35 -2.75 13.7 L-3.15 14.15 -3.75 14.8 Q-4.25 15.2 -5.3 14.8 L-7.55 14.1 -9.35 13.7 Q-10.25 13.2 -10.7 13.0 L-11.5 12.4 Q-11.65 11.95 -9.95 11.6" fill="#6b0000" fill-rule="evenodd" stroke="none"/>
      <path d="M-7.05 12.3 Q-5.25 11.55 -3.8 13.6 -2.4 15.45 -6.6 14.6 -10.4 13.8 -9.4 13.1 -8.85 12.75 -7.05 12.3" fill="#c70000" fill-rule="evenodd" stroke="none"/>
      <path d="M11.9 7.05 L12.4 7.75 -1.35 15.4 -2.2 15.4 -3.2 15.2 -0.35 12.3 Q2.85 9.3 4.55 8.65 8.55 7.2 10.35 4.7 L10.95 4.7 11.9 7.05" fill="#f0ec97" fill-rule="evenodd" stroke="none"/>
      <path d="M-0.2 10.55 L-0.9 11.1 -1.7 11.9 -2.8 12.55 -8.95 10.2 -13.55 8.15 -12.5 6.4 Q-11.7 6.3 -11.7 5.0 L-11.35 4.05 -6.25 7.0 Q-3.7 8.25 0.45 9.75 L-0.2 10.55" fill="#f0ec97" fill-rule="evenodd" stroke="none"/>
      <path d="M0.1 8.9 L-3.6 7.2 Q4.95 4.05 5.65 2.45 6.3 0.9 5.9 0.0 9.1 0.8 9.4 2.15 9.8 4.25 8.25 5.5 L3.0 8.15 0.1 8.9" fill="#f0ec97" fill-rule="evenodd" stroke="none"/>
      <path d="M-3.25 6.6 L-6.7 5.7 Q-9.55 4.25 -9.1 2.8 -8.6 1.35 -6.75 0.75 L-7.0 1.45 Q-7.2 2.25 -6.85 2.6 -6.25 3.2 -0.05 5.25 L-3.25 6.6" fill="#f0ec97" fill-rule="evenodd" stroke="none"/>
      <path d="M1.75 0.4 L4.35 0.75 4.2 2.4 1.45 3.9 -0.7 4.15 Q-5.4 2.65 -5.65 1.75 -5.8 1.1 -4.55 0.6 L-2.7 0.2 1.75 0.4" fill="#f0ec97" fill-rule="evenodd" stroke="none"/>
      <path d="M13.05 11.95 L8.4 10.7 11.75 8.85 12.8 10.2 13.05 11.95" fill="#665b41" fill-rule="evenodd" stroke="none"/>
      <path d="M-12.45 9.4 L-9.65 10.65 Q-11.65 11.5 -12.45 11.55 L-13.95 12.0 -12.45 9.4" fill="#9c8c62" fill-rule="evenodd" stroke="none"/>
      <path d="M-5.25 12.5 Q-4.0 12.75 -4.25 13.8 -4.55 14.8 -5.8 14.55 -7.05 14.3 -6.75 13.3 -6.45 12.3 -5.25 12.5" fill="#ff0000" fill-rule="evenodd" stroke="none"/>
      <path d="M4.65 12.6 Q5.9 12.8 5.6 13.85 5.3 14.9 4.1 14.65 2.85 14.4 3.15 13.4 3.45 12.4 4.65 12.6" fill="#ff0000" fill-rule="evenodd" stroke="none"/>
      <path d="M3.65 12.45 Q4.5 12.35 4.65 13.0 4.85 13.7 4.1 13.95 3.4 14.15 3.15 13.35 2.95 12.55 3.65 12.45" fill="#ffb0b0" fill-rule="evenodd" stroke="none"/>
      <path d="M-6.25 12.3 Q-5.35 12.05 -5.1 12.55 -4.9 13.0 -5.65 13.6 -6.4 14.2 -6.85 13.4 -7.3 12.6 -6.25 12.3" fill="#ffb0b0" fill-rule="evenodd" stroke="none"/>
      <path d="M26.25 17.55 L25.0 19.35 22.9 19.35 17.15 18.75 17.05 17.15 19.8 17.55 26.25 17.55" fill="#f0ec97" fill-rule="evenodd" stroke="none"/>
      <path d="M23.5 22.85 L22.95 24.65 16.35 22.25 17.6 21.6 17.75 20.6 23.5 22.85" fill="#f0ec97" fill-rule="evenodd" stroke="none"/>
      <path d="M12.0 19.6 Q8.05 23.65 -0.35 23.65 -8.8 23.65 -13.0 19.05 L-13.0 18.75 Q-5.15 20.85 0.15 20.85 5.45 20.85 12.0 19.6" fill="#000000" fill-rule="evenodd" stroke="none"/>
      <path d="M1.85 3.1 Q3.85 2.6 3.2 0.55 L4.35 0.75 4.25 1.9 Q4.25 2.4 3.1 3.4 2.4 3.95 0.75 4.1 L-0.7 4.15 -1.75 3.7 1.85 3.1" fill="#c2ae7a" fill-rule="evenodd" stroke="none"/>
      <path d="M0.3 8.95 L-1.65 8.1 Q3.4 7.35 5.8 5.75 9.05 3.6 9.25 2.7 L9.4 2.15 Q10.15 4.0 7.95 5.85 5.75 7.7 0.3 8.95" fill="#c2ae7a" fill-rule="evenodd" stroke="none"/>
      <path d="M-2.5 4.5 L-0.05 5.25 -3.25 6.6 -4.45 6.55 -7.1 5.55 -3.0 5.95 Q-2.2 5.6 -2.0 5.6 L-2.5 4.5" fill="#c2ae7a" fill-rule="evenodd" stroke="none"/>
      <path d="M6.1 11.4 L-1.3 15.45 -2.05 15.4 Q1.25 13.6 3.0 12.1 L5.95 10.2 Q7.65 9.4 8.0 8.15 8.3 7.05 8.85 6.55 L10.0 5.5 Q10.75 4.75 11.15 5.35 L11.85 6.95 12.4 7.75 6.1 11.4" fill="#c2ae7a" fill-rule="evenodd" stroke="none"/>
      <path d="M0.45 9.75 L0.25 10.35 -1.05 11.55 Q-1.7 12.1 -2.8 12.55 L-8.6 10.35 -3.7 10.95 Q-2.0 11.25 -1.95 10.5 -1.85 9.75 -5.25 7.45 L0.45 9.75" fill="#c2ae7a" fill-rule="evenodd" stroke="none"/>
      <path d="M3.25 15.75 L8.35 15.05 Q10.0 14.7 11.55 13.75 12.5 13.3 13.4 12.8 L14.35 12.7 15.45 16.15 14.85 16.4 7.1 16.0 3.25 15.75" fill="#c2ae7a" fill-rule="evenodd" stroke="none"/>
      <path d="M5.0 20.5 L0.15 20.35 -0.1 19.95 0.65 19.2 6.35 18.7 -0.55 18.0 1.05 17.55 2.7 16.95 6.35 17.35 15.0 16.9 15.05 17.15 13.85 17.95 Q13.15 17.95 10.25 19.6 8.7 20.25 5.0 20.5" fill="#c2ae7a" fill-rule="evenodd" stroke="none"/>
      <path d="M15.25 21.4 L12.6 22.5 Q7.45 24.8 4.0 25.4 L-1.1 25.6 0.5 24.8 4.9 24.15 10.75 21.75 14.25 19.2 15.95 17.95 16.2 20.85 15.25 21.4" fill="#c2ae7a" fill-rule="evenodd" stroke="none"/>
      <path d="M17.15 18.75 L16.95 16.75 18.55 17.5 20.85 18.15 22.55 19.35 17.15 18.75" fill="#c2ae7a" fill-rule="evenodd" stroke="none"/>
      <path d="M21.0 23.95 L18.95 23.35 16.35 22.25 17.6 21.6 17.75 20.6 19.55 21.3 20.2 22.05 21.0 23.95" fill="#c2ae7a" fill-rule="evenodd" stroke="none"/>
      <path d="M-5.1 8.1 L-10.3 5.55 -11.7 4.65 -11.35 4.05 -5.1 8.1" fill="#ffffff" fill-rule="evenodd" stroke="none"/>
      <path d="M-7.05 0.7 L-6.85 2.0 -6.15 3.15 -4.85 3.8 -7.8 3.05 -8.25 2.2 -8.25 1.6 -7.05 0.7" fill="#ffffff" fill-rule="evenodd" stroke="none"/>
      <path d="M-2.7 0.2 L-0.7 0.45 Q-3.25 0.9 -3.6 1.5 L-3.85 3.0 -5.45 1.65 -5.0 1.05 -2.7 0.2" fill="#ffffff" fill-rule="evenodd" stroke="none"/>
      <path d="M3.7 5.0 Q0.45 6.75 -2.45 7.65 L-3.6 7.2 -3.15 6.95 Q3.0 4.9 4.3 3.85 5.1 3.25 5.7 2.0 L6.05 0.7 Q6.95 3.25 3.7 5.0" fill="#ffffff" fill-rule="evenodd" stroke="none"/>
      <path d="M-10.6 5.35 L-10.8 6.4 -12.45 7.35 -12.9 8.5 -13.55 8.35 Q-13.25 6.85 -12.65 6.4 -12.05 5.95 -11.7 5.5 L-11.65 4.45 -11.25 4.3 -10.6 5.35" fill="#ffffff" fill-rule="evenodd" stroke="none"/>
      <path d="M-12.7 7.25 L-11.65 6.95 -10.7 7.35 -7.9 9.5 -12.7 7.25" fill="#ffffff" fill-rule="evenodd" stroke="none"/>
      <path d="M-16.7 16.05 L-15.6 13.0 -15.05 12.35 -9.45 14.65 -14.2 13.75 -15.35 14.2 -15.65 15.1 -10.4 17.5 -15.2 16.05 -15.0 16.85 -16.7 16.05" fill="#ffffff" fill-rule="evenodd" stroke="none"/>
      <path d="M-13.45 18.85 L-12.65 19.2 -11.15 20.4 Q-9.4 21.7 -8.0 22.15 -5.4 23.1 -2.4 23.7 -8.0 23.4 -12.55 20.7 L-15.15 19.05 -16.65 18.6 -16.85 17.75 -16.6 17.15 -13.45 18.85" fill="#ffffff" fill-rule="evenodd" stroke="none"/>
      <path d="M-2.9 18.9 L-8.9 18.7 Q-9.95 18.7 -14.25 16.45 L-2.9 18.9" fill="#c2ae7a" fill-rule="evenodd" stroke="none"/>
    </g>
  </defs>
</svg>
